X:2119
T:Valövalsen
C:Erik Johansson
R:Vals
O:Oppeby, Östergötland
Q:140
Z:Jörgen Olsson
M:3/4
L:1/8
K:G
"G"G,2B2B2|G,2d2d2 |G,2B2B2|G,2d2d2 |"Am" c2 cdcB| "D" A4 B2 |
 "Am" c2 cdcB |"D7" ABAGFE |"G"G,2B2B2|"G"G,2d2d2 |"G"G,2B2B2|"G"G,2d2d2 |
"Am" c2 cdcB| "D7" ABAGF2 | "G" G3 G G2 |"G7" G2A2B2||"C"E2 cEcE |E2 cEcE|
"G" D2 BDBD |D2 BD B2 |"D7"d2 dedc| BcBAGA|"G"B3 c BA|"G7" G2A2B2|
"C"E2 cEcE |E2 cEcE|"G" D2 BDBD |D2 BD B2 |"D7"d2 dedc| BcBAGF|"G" G3 G G2| G6 ||

|:"Em" EGBcBG |EGBcBG |"B7"^DFABAF |^D6 |"B7" ^DFABAF |
^DFABAF |"Em" EGBcBG |E6 |"Em" EGBcBG |"E7" E^GBdcB |
"Am" cdcBcB |1 A6 |"D" DFABAF |"D7" DFABAF |"G" G2 GFGA |"B7" B6 :|
|2 A4 AB |"Am" c2 c2 BA |"Em" B2 G2 GB |"B7" A2 AGFG |"Em" E2 EFE^D |"D7" D6 |]
(:musicend:)
[[!ackord]]
(:music:)
